blockchains/kusama/logo.svg

<svg fill="none" height="250" viewBox="0 0 250 250" width="250" xmlns="http://www.w3.org/2000/svg" xmlns:xlink="http://www.w3.org/1999/xlink"><clipPath id="a"><path d="m0 0h250v250h-250z"/></clipPath><g clip-path="url(#a)"><path d="m249.717.283203h-249.433553v249.432797h249.433553z" fill="#000" stroke="#000" stroke-miterlimit="10"/><path d="m211.791 72.222c-2.947-2.3243-6.462-5.4989-12.868-6.2926-6.009-.7936-12.132 3.2313-16.27 5.8957s-11.961 10.4876-15.193 12.8685c-3.231 2.381-11.508 4.5919-24.83 12.5851-13.322 7.9933-65.5892 41.5533-65.5892 41.5533l13.6054.17-60.6576 31.236h6.0658l-8.7302 6.633s7.7098 2.041 14.1724-2.041v1.871s72.2224-28.458 86.1674-21.089l-8.503 2.494c.737 0 14.456.908 14.456.908.333 2.84 1.288 5.573 2.797 8.003 1.508 2.43 3.534 4.497 5.933 6.055 8.277 5.443 8.447 8.447 8.447 8.447s-4.309 1.758-4.309 3.968c0 0 6.349-1.927 12.245-1.757 3.742.142 7.453.732 11.055 1.757 0 0-.454-2.38-6.18-3.968-5.725-1.587-11.394-7.823-14.172-11.224-1.701-2.165-2.81-4.736-3.218-7.459-.407-2.723-.099-5.506.894-8.074 1.984-5.159 8.9-7.993 23.186-15.363 16.836-8.73 20.691-15.193 23.072-20.238 2.381-5.046 5.896-15.08 7.88-19.7848 2.494-6.0658 5.556-9.2971 8.107-11.2245s13.889-6.1791 13.889-6.1791-8.674-7.5397-11.452-9.7506z" fill="#fff"/></g></svg>

<svg width="250" height="250" viewBox="0 0 250 250" fill="none" xmlns="http://www.w3.org/2000/svg">
<g clip-path="url(#clip0_9_755)">
<path d="M249.717 0.283203H0.283447V249.716H249.717V0.283203Z" fill="black" stroke="black" stroke-miterlimit="10"/>
<path d="M211.791 72.222C208.844 69.8977 205.329 66.7231 198.923 65.9294C192.914 65.1358 186.791 69.1607 182.653 71.8251C178.515 74.4895 170.692 82.3127 167.46 84.6936C164.229 87.0746 155.952 89.2855 142.63 97.2787C129.308 105.272 77.0408 138.832 77.0408 138.832L90.6462 139.002L29.9886 170.238H36.0544L27.3242 176.871C27.3242 176.871 35.034 178.912 41.4966 174.83V176.701C41.4966 176.701 113.719 148.243 127.664 155.612L119.161 158.106C119.898 158.106 133.617 159.014 133.617 159.014C133.95 161.854 134.905 164.587 136.414 167.017C137.922 169.447 139.948 171.514 142.347 173.072C150.624 178.515 150.794 181.519 150.794 181.519C150.794 181.519 146.485 183.277 146.485 185.487C146.485 185.487 152.834 183.56 158.73 183.73C162.472 183.872 166.183 184.462 169.785 185.487C169.785 185.487 169.331 183.107 163.605 181.519C157.88 179.932 152.211 173.696 149.433 170.295C147.732 168.13 146.623 165.559 146.215 162.836C145.808 160.113 146.116 157.33 147.109 154.762C149.093 149.603 156.009 146.769 170.295 139.399C187.131 130.669 190.986 124.206 193.367 119.161C195.748 114.115 199.263 104.081 201.247 99.3762C203.741 93.3104 206.803 90.0791 209.354 88.1517C211.905 86.2243 223.243 81.9726 223.243 81.9726C223.243 81.9726 214.569 74.4329 211.791 72.222Z" fill="white"/>
</g>
<defs>
<clipPath id="clip0_9_755">
<rect width="250" height="250" fill="white"/>
</clipPath>
</defs>
</svg>
